src/img/ico-update.svg

<svg width="14" height="14" viewBox="0 0 14 14" fill="none" xmlns="http://www.w3.org/2000/svg">
<path d="M1.2171 11.2196C1.13051 11.8661 1.04969 12.4607 0.974651 13.0553C0.945787 13.2747 0.888062 13.4651 0.668702 13.5575C0.328116 13.7018 -0.0471054 13.4132 0.00484836 13.038C0.0856653 12.4261 0.178027 11.8199 0.264617 11.2138C0.339661 10.6885 0.403159 10.169 0.47243 9.64367C0.512839 9.36081 0.662928 9.21649 0.945787 9.23958C1.33255 9.26844 1.71932 9.32616 2.10609 9.37812C2.62562 9.44739 3.14516 9.51667 3.6647 9.58594C3.90715 9.62057 4.1496 9.64943 4.39205 9.69561C4.64605 9.74757 4.81346 10.0189 4.76727 10.2671C4.70955 10.5615 4.50173 10.6943 4.19578 10.6539C3.65893 10.5788 3.1163 10.5211 2.57944 10.4518C2.39472 10.4287 2.20999 10.4056 2.0195 10.3883C1.98486 10.3826 1.94445 10.3883 1.88096 10.3883C1.92136 10.4518 1.93868 10.498 1.97332 10.5384C2.72953 11.5313 3.68779 12.2471 4.86541 12.6628C5.78326 12.9802 6.7242 13.0957 7.67668 12.9283C9.69133 12.5819 11.2038 11.5198 12.1736 9.70716C12.2832 9.49358 12.3987 9.30307 12.6758 9.29153C13.0395 9.27998 13.2877 9.65521 13.1318 9.98425C12.5776 11.1503 11.7579 12.097 10.6842 12.8186C9.93378 13.3208 9.11407 13.673 8.23086 13.8519C7.23796 14.054 6.24507 14.054 5.25795 13.823C3.69934 13.4594 2.41204 12.657 1.38451 11.4274C1.33833 11.3581 1.29215 11.3062 1.2171 11.2196Z" fill="white"/>
<path d="M11.6947 3.55351C11.6312 3.46692 11.5735 3.37456 11.5042 3.29374C10.673 2.26044 9.62235 1.5504 8.34082 1.19827C7.62501 1.002 6.89766 0.932732 6.15876 1.01932C4.29998 1.23868 2.85682 2.13921 1.78888 3.65741C1.63302 3.87677 1.51757 4.11923 1.37902 4.35013C1.3617 4.37899 1.34439 4.40786 1.33284 4.43672C1.17698 4.71381 0.93453 4.79462 0.680534 4.66185C0.432311 4.53486 0.339948 4.24623 0.466946 3.98646C0.946075 3.00511 1.60416 2.1623 2.47005 1.49268C3.2609 0.880776 4.13834 0.447832 5.11969 0.205381C6.02599 -0.0139788 6.93807 -0.0659325 7.86747 0.0899287C9.63967 0.384333 11.0886 1.22714 12.2316 2.6068C12.2547 2.63566 12.2778 2.66452 12.3066 2.69339C12.3124 2.69916 12.3239 2.69915 12.3528 2.7107C12.3701 2.65297 12.3932 2.60103 12.399 2.5433C12.4798 1.97181 12.5548 1.40031 12.6299 0.828822C12.6703 0.5171 12.9301 0.338149 13.2418 0.390103C13.4958 0.436284 13.6401 0.696054 13.5939 0.990459C13.5016 1.59659 13.415 2.20848 13.3226 2.81461C13.2533 3.27065 13.1841 3.72668 13.1148 4.18272C13.1033 4.26931 13.1032 4.36168 13.0686 4.43672C12.982 4.62722 12.8262 4.74267 12.6126 4.71958C12.2316 4.67917 11.8506 4.62722 11.4696 4.58104C10.9385 4.51176 10.4132 4.44249 9.88212 4.37322C9.65121 4.34436 9.42608 4.31549 9.20094 4.26931C8.9354 4.21159 8.78532 3.96914 8.82572 3.7036C8.86036 3.47269 9.12013 3.28219 9.36835 3.31106C10.0091 3.3861 10.6441 3.47269 11.2849 3.54773C11.4119 3.56505 11.5389 3.57083 11.6716 3.58237C11.6774 3.5766 11.689 3.56506 11.6947 3.55351Z" fill="white"/>
</svg>

<svg width="14" height="14" fill="none" xmlns="http://www.w3.org/2000/svg"><path d="M1.217 11.22c-.086.646-.167 1.24-.242 1.835-.03.22-.087.41-.306.502a.486.486 0 01-.664-.519c.08-.612.173-1.218.26-1.824.075-.526.138-1.045.207-1.57.04-.283.19-.428.474-.404.387.028.773.086 1.16.138l1.559.208c.242.035.485.063.727.11a.502.502 0 01.375.571c-.057.295-.265.427-.571.387-.537-.075-1.08-.133-1.617-.202a18.377 18.377 0 00-.56-.064c-.034-.005-.075 0-.138 0 .04.064.058.11.092.15.757.993 1.715 1.71 2.892 2.125.918.317 1.86.433 2.812.265 2.014-.346 3.527-1.408 4.497-3.22.11-.214.225-.405.502-.416a.486.486 0 01.456.692 6.966 6.966 0 01-2.448 2.835c-.75.502-1.57.854-2.453 1.033a6.884 6.884 0 01-2.973-.029c-1.559-.364-2.846-1.166-3.873-2.396-.047-.069-.093-.12-.168-.207zm10.478-7.666c-.064-.087-.122-.18-.19-.26C10.672 2.26 9.621 1.55 8.34 1.198a5.683 5.683 0 00-2.182-.179c-1.859.22-3.302 1.12-4.37 2.638-.156.22-.271.462-.41.693a.631.631 0 00-.046.087c-.156.277-.398.358-.652.225a.495.495 0 01-.214-.676c.48-.98 1.137-1.824 2.003-2.493A7.039 7.039 0 015.12.205 6.778 6.778 0 017.867.09c1.773.294 3.222 1.137 4.365 2.517.023.029.046.058.075.086.005.006.017.006.046.018.017-.058.04-.11.046-.168.08-.571.156-1.143.23-1.714.041-.312.301-.49.613-.439.254.046.398.306.352.6-.092.607-.179 1.218-.271 1.825l-.208 1.368c-.012.086-.012.179-.046.254-.087.19-.243.306-.456.283-.381-.04-.762-.093-1.143-.139l-1.588-.208a8.8 8.8 0 01-.681-.104.485.485 0 01-.375-.565c.034-.231.294-.422.542-.393.641.075 1.276.162 1.917.237.127.017.254.023.387.034a.123.123 0 00.023-.028z" fill="#fff"/></svg>
